website/media/images/svg/linkedin.svg

<svg width="36" height="36" viewBox="0 0 36 36" fill="none" xmlns="http://www.w3.org/2000/svg">
<g clip-path="url(#clip0)">
<path d="M36 18C36 8.05888 27.9411 0 18 0C8.05888 0 0 8.05888 0 18C0 27.9411 8.05888 36 18 36C27.9411 36 36 27.9411 36 18Z" fill="url(#paint0_radial)"/>
<path opacity="0.1" d="M31.5474 6.15777C28.9232 10.9751 25.2119 15.9441 20.5745 20.5815C15.9371 25.2188 10.9682 28.923 6.15794 31.5472C5.85636 31.2851 5.56346 31.012 5.27925 30.7278C3.56134 29.0672 2.19121 27.0812 1.24876 24.8857C0.306314 22.6901 -0.18959 20.3289 -0.210034 17.9397C-0.230479 15.5505 0.224945 13.1811 1.12968 10.9697C2.03442 8.75834 3.37036 6.74922 5.05961 5.0595C6.74886 3.36978 8.75761 2.03327 10.9687 1.12792C13.1799 0.222569 15.5491 -0.233516 17.9383 -0.213739C20.3275 -0.193961 22.6889 0.301283 24.8847 1.24312C27.0805 2.18495 29.0669 3.55452 30.7279 5.27198C31.0121 5.55619 31.2853 5.85145 31.5474 6.15777Z" fill="white"/>
<path d="M27.4735 27.4735V20.5245C27.4735 17.1235 26.7417 14.5063 22.7674 14.5063C20.8561 14.5063 19.5748 15.5532 19.0514 16.5479H18.9969V14.8237H15.2288V27.4735H19.1509V21.209C19.1509 19.5511 19.4635 17.9642 21.5193 17.9642C23.5751 17.9642 23.5609 19.859 23.5609 21.3156V27.4735H27.4735Z" fill="white"/>
<path d="M8.83887 14.8237H12.7681V27.4735H8.83887V14.8237Z" fill="white"/>
<path d="M10.8022 8.5264C10.3493 8.52405 9.90588 8.65634 9.52827 8.90647C9.15066 9.1566 8.85588 9.51329 8.68136 9.93125C8.50683 10.3492 8.46044 10.8096 8.54805 11.254C8.63567 11.6984 8.85335 12.1067 9.17346 12.4272C9.49357 12.7476 9.90167 12.9657 10.346 13.0538C10.7903 13.1419 11.2507 13.096 11.6689 12.9219C12.087 12.7478 12.444 12.4534 12.6945 12.076C12.945 11.6987 13.0778 11.2554 13.0759 10.8025C13.0759 10.1992 12.8365 9.62065 12.4101 9.19388C11.9838 8.7671 11.4055 8.52703 10.8022 8.5264Z" fill="white"/>
</g>
<defs>
<radialGradient id="paint0_radial" cx="0" cy="0" r="1" gradientUnits="userSpaceOnUse" gradientTransform="translate(18 18) scale(18)">
<stop stop-color="#42A5F5"/>
<stop offset="1" stop-color="#1565C0"/>
</radialGradient>
<clipPath id="clip0">
<rect width="36" height="36" fill="white"/>
</clipPath>
</defs>
</svg>

<svg width="36" height="36" viewBox="0 0 36 36" fill="none" xmlns="http://www.w3.org/2000/svg"><g clip-path="url(#clip0)"><path d="M36 18c0-9.941-8.059-18-18-18S0 8.059 0 18s8.059 18 18 18 18-8.059 18-18z" fill="url(#paint0_radial)"/><path opacity=".1" d="M31.547 6.158c-2.624 4.817-6.335 9.786-10.973 14.423-4.637 4.638-9.606 8.342-14.416 10.966a17.184 17.184 0 01-.879-.82A18.001 18.001 0 0124.885 1.244a18 18 0 015.843 4.029c.284.284.557.58.82.886z" fill="#fff"/><path d="M27.474 27.474v-6.95c0-3.4-.732-6.018-4.707-6.018-1.91 0-3.192 1.047-3.716 2.042h-.054v-1.724h-3.768v12.65h3.922v-6.265c0-1.658.313-3.245 2.368-3.245 2.056 0 2.042 1.895 2.042 3.352v6.158h3.913zM8.839 14.824h3.93v12.65h-3.93v-12.65zm1.963-6.298a2.285 2.285 0 102.274 2.277 2.276 2.276 0 00-2.274-2.277z" fill="#fff"/></g><defs><radialGradient id="paint0_radial" cx="0" cy="0" r="1" gradientUnits="userSpaceOnUse" gradientTransform="matrix(18 0 0 18 18 18)"><stop stop-color="#42A5F5"/><stop offset="1" stop-color="#1565C0"/></radialGradient><clipPath id="clip0"><path fill="#fff" d="M0 0h36v36H0z"/></clipPath></defs></svg>
